svg/beetroots2.svg

<?xml version="1.0" encoding="UTF-8" standalone="no"?>
<!-- Created with Inkscape (http://www.inkscape.org/) -->

<svg
   width="32"
   height="32"
   viewBox="0 0 8.4666666 8.4666668"
   version="1.1"
   id="svg5"
   inkscape:version="1.2 (dc2aeda, 2022-05-15)"
   sodipodi:docname="beets2.svg"
   xmlns:inkscape="http://www.inkscape.org/namespaces/inkscape"
   xmlns:sodipodi="http://sodipodi.sourceforge.net/DTD/sodipodi-0.dtd"
   xmlns="http://www.w3.org/2000/svg"
   xmlns:svg="http://www.w3.org/2000/svg"
   xmlns:rdf="http://www.w3.org/1999/02/22-rdf-syntax-ns#"
   xmlns:cc="http://creativecommons.org/ns#">
  <sodipodi:namedview
     id="namedview7"
     pagecolor="#ffffff"
     bordercolor="#111111"
     borderopacity="1"
     inkscape:pageshadow="0"
     inkscape:pageopacity="0"
     inkscape:pagecheckerboard="1"
     inkscape:document-units="mm"
     showgrid="true"
     width="32mm"
     units="px"
     objecttolerance="10000"
     guidetolerance="10000"
     inkscape:snap-perpendicular="true"
     inkscape:snap-tangential="true"
     inkscape:zoom="34.90625"
     inkscape:cx="7.6920322"
     inkscape:cy="22.846911"
     inkscape:window-width="2560"
     inkscape:window-height="1301"
     inkscape:window-x="0"
     inkscape:window-y="25"
     inkscape:window-maximized="0"
     inkscape:current-layer="layer1"
     inkscape:showpageshadow="0"
     inkscape:deskcolor="#d1d1d1">
    <inkscape:grid
       type="xygrid"
       id="grid9"
       units="px"
       empspacing="4" />
  </sodipodi:namedview>
  <defs
     id="defs2" />
  <g
     inkscape:label="Layer 1"
     inkscape:groupmode="layer"
     id="layer1">
    <path
       id="path490"
       style="fill:#000000;stroke:none;stroke-width:0.264583px;stroke-linecap:butt;stroke-linejoin:miter;stroke-opacity:1"
       d="M 1.3229167,6.35 V 6.8791666 L 0.79375,6.3499999 H 0.26458333 L 1.3229167,7.4083333 V 8.4666666 H 1.8520833 V 7.4083333 L 2.9104167,6.3499999 H 2.38125 L 1.8520833,6.8791666 V 6.35 H 1.5875 Z"
       sodipodi:nodetypes="cccccccccccccc" />
    <path
       id="path797"
       style="fill:#000000;stroke:none;stroke-width:0.264583px;stroke-linecap:butt;stroke-linejoin:miter;stroke-opacity:1"
       d="M 3.9687497,6.35 V 6.8791666 L 3.439583,6.3499999 H 2.9104164 L 3.9687497,7.4083333 V 8.4666666 H 4.4979163 V 7.4083333 L 5.5562497,6.3499999 H 5.027083 L 4.4979163,6.8791666 V 6.35 H 4.233333 Z"
       sodipodi:nodetypes="cccccccccccccc" />
    <path
       id="path799"
       style="fill:#000000;stroke:none;stroke-width:0.264583px;stroke-linecap:butt;stroke-linejoin:miter;stroke-opacity:1"
       d="M 6.6145827,6.35 V 6.8791666 L 6.085416,6.3499999 H 5.5562494 L 6.6145827,7.4083333 V 8.4666666 H 7.1437493 V 7.4083333 L 8.2020827,6.3499999 H 7.672916 L 7.1437493,6.8791666 V 6.35 H 6.879166 Z"
       sodipodi:nodetypes="cccccccccccccc" />
  </g>
  <metadata
     id="metadata33">
    <rdf:RDF>
      <cc:Work
         rdf:about="">
        <cc:license
           rdf:resource="http://creativecommons.org/licenses/by-sa/4.0/" />
      </cc:Work>
      <cc:License
         rdf:about="http://creativecommons.org/licenses/by-sa/4.0/">
        <cc:permits
           rdf:resource="http://creativecommons.org/ns#Reproduction" />
        <cc:permits
           rdf:resource="http://creativecommons.org/ns#Distribution" />
        <cc:requires
           rdf:resource="http://creativecommons.org/ns#Notice" />
        <cc:requires
           rdf:resource="http://creativecommons.org/ns#Attribution" />
        <cc:permits
           rdf:resource="http://creativecommons.org/ns#DerivativeWorks" />
        <cc:requires
           rdf:resource="http://creativecommons.org/ns#ShareAlike" />
      </cc:License>
    </rdf:RDF>
  </metadata>
</svg>

<svg width="32" height="32" viewBox="0 0 8.467 8.467" xmlns="http://www.w3.org/2000/svg"><path style="fill:#000;stroke:none;stroke-width:.264583px;stroke-linecap:butt;stroke-linejoin:miter;stroke-opacity:1" d="M1.323 6.35v.53l-.53-.53H.266l1.058 1.058v1.059h.53V7.408L2.91 6.35h-.529l-.529.53v-.53h-.265ZM3.969 6.35v.53l-.53-.53H2.91L3.97 7.408v1.059h.529V7.408L5.556 6.35h-.529l-.53.53v-.53h-.264ZM6.615 6.35v.53l-.53-.53h-.529l1.059 1.058v1.059h.529V7.408L8.202 6.35h-.53l-.528.53v-.53h-.265Z"/></svg>
